assets/images/google-cloud-logo.svg

<svg width="24px" height="19px" viewBox="0 0 24 19" version="1.1" xmlns="http://www.w3.org/2000/svg" xmlns:xlink="http://www.w3.org/1999/xlink">
    <!-- Generator: Sketch 51.2 (57519) - http://www.bohemiancoding.com/sketch -->
    <desc>Created with Sketch.</desc>
    <defs>
        <polygon id="path-1" points="0 0.000281481482 23.5536382 0.000281481482 23.5536382 18.8968369 0 18.8968369"></polygon>
    </defs>
    <g id="desktop" stroke="none" stroke-width="1" fill="none" fill-rule="evenodd" opacity="0.5">
        <g id="01_Homepage" transform="translate(-981.000000, -4014.000000)">
            <g id="GetStarted" transform="translate(0.000000, 3522.000000)">
                <g id="Via-CLoud" transform="translate(953.000000, 71.000000)">
                    <g id="Button-Copy" transform="translate(0.000000, 398.000000)">
                        <g id="Cloud_Google" transform="translate(28.000000, 23.000000)">
                            <g id="Page-1">
                                <mask id="mask-2" fill="white">
                                    <use xlink:href="#path-1"></use>
                                </mask>
                                <g id="Clip-2"></g>
                                <path d="M6.6132,5.62618148 C6.85461176,5.62547778 7.09390588,5.64095926 7.33108235,5.66558889 C7.09390588,5.64095926 6.85461176,5.62547778 6.6132,5.62618148 M16.8492,14.8130333 L11.7343765,14.8130333 L11.7266118,14.8207741 L11.7266118,14.7877 L6.6132,14.7877 C6.25249412,14.7877 5.89178824,14.7095889 5.56355294,14.5575889 L5.56567059,14.5554778 C3.93437647,13.8208111 3.54472941,11.6914037 4.80967059,10.429663 C6.07390588,9.16932963 8.20990588,9.55777407 8.94755294,11.1826259 L11.9143765,8.22636667 C10.8484941,6.83655185 9.27931765,5.94144074 7.56684706,5.69936667 C7.68190588,5.71555185 7.79767059,5.72751481 7.91061176,5.74932963 C7.93249412,5.73666296 7.95296471,5.73032963 7.97061176,5.73384815 C9.7932,3.73814444 12.8567294,3.50732963 14.9595529,5.20536667 L15.0153176,5.20536667 C16.2012,6.19336667 16.8781412,7.6627 16.8492,9.20662593 L16.8492,9.7139963 C20.2579059,9.7139963 20.2579059,14.8130333 16.8492,14.8130333 M4.77084706,5.90273704 C4.73414118,5.91329259 4.69743529,5.92314444 4.66143529,5.9344037 C4.69743529,5.92314444 4.73414118,5.91329259 4.77084706,5.90273704 M3.88214118,6.23488519 C3.84261176,6.25318148 3.80308235,6.27147778 3.76355294,6.28977407 C3.80308235,6.27147778 3.84261176,6.25318148 3.88214118,6.23488519 M5.69202353,5.69936667 C5.66661176,5.70358889 5.6412,5.7057 5.61508235,5.70992222 C5.6412,5.7057 5.66661176,5.70358889 5.69202353,5.69936667 M20.6277882,6.77110741 C20.1569647,5.04492222 19.1906118,3.49325556 17.8480235,2.30329259 L17.8042588,2.34692222 L17.8106118,2.29625556 C15.4275529,0.199218519 12.1233176,-0.524188889 9.07884706,0.386403704 C6.03296471,1.30051481 3.67531765,3.71281111 2.84167059,6.77110741 C2.89108235,6.7514037 2.9412,6.73451481 2.99343529,6.72184815 C3.00967059,6.71058889 3.02872941,6.70284815 3.04567059,6.69229259 C1.81037647,7.48818148 0.8412,8.68377407 0.3492,10.139737 C-0.559976471,12.8243667 0.346376471,15.7862556 2.59814118,17.5131444 L3.31037647,16.8038111 L2.60590588,17.5054037 L2.59814118,17.5363667 C3.75437647,18.404737 5.16543529,18.8748111 6.6132,18.8670704 L11.7054353,18.8670704 L11.7343765,18.8966259 L16.8492,18.8966259 C19.7828471,18.9198481 22.3826118,17.0240704 23.2550824,14.2317741 C24.1226118,11.4408852 23.0553176,8.40862593 20.6277882,6.77110741" id="Fill-1" fill="#9B9B9B" mask="url(#mask-2)"></path>
                            </g>
                        </g>
                    </g>
                </g>
            </g>
        </g>
    </g>
</svg>

<svg width="24px" height="19px" viewBox="0 0 24 19" version="1.1" xmlns="http://www.w3.org/2000/svg" xmlns:xlink="http://www.w3.org/1999/xlink">
    <!-- Generator: Sketch 51.2 (57519) - http://www.bohemiancoding.com/sketch -->
    <desc>Created with Sketch.</desc>
    <defs>
        <polygon id="path-1" points="0 0.000281481482 23.5536382 0.000281481482 23.5536382 18.8968369 0 18.8968369"></polygon>
    </defs>
    <g id="desktop" stroke="none" stroke-width="1" fill="none" fill-rule="evenodd" opacity="0.5">
        <g id="01_Homepage" transform="translate(-981.000000, -4014.000000)">
            <g id="GetStarted" transform="translate(0.000000, 3522.000000)">
                <g id="Via-CLoud" transform="translate(953.000000, 71.000000)">
                    <g id="Button-Copy" transform="translate(0.000000, 398.000000)">
                       <g id="Cloud_Google" transform="translate(28.000000, 23.000000)">
						<g id="Page-1">
							<g id="Clip-2">
							</g>
							<defs>
								<filter id="Adobe_OpacityMaskFilter" filterUnits="userSpaceOnUse" x="0" y="0" width="23.6" height="18.9">
									<feColorMatrix  type="matrix" values="1 0 0 0 0  0 1 0 0 0  0 0 1 0 0  0 0 0 1 0"/>
								</filter>
							</defs>
							<mask maskUnits="userSpaceOnUse" x="0" y="0" width="23.6" height="18.9" id="mask-2">
								<g filter="url(#Adobe_OpacityMaskFilter)">
									<polygon id="path-1" fill="#FFFFFF" points="0,0 23.6,0 23.6,18.9 0,18.9 									"/>
								</g>
							</mask>
							<path id="Fill-1" mask="url(#mask-2)" fill="#262626" d="M6.6,5.6c0.2,0,0.5,0,0.7,0C7.1,5.6,6.9,5.6,6.6,5.6 M16.8,14.8
								h-5.1l0,0v0H6.6c-0.4,0-0.7-0.1-1-0.2l0,0c-1.6-0.7-2-2.9-0.8-4.1c1.3-1.3,3.4-0.9,4.1,0.8l3-3c-1.1-1.4-2.6-2.3-4.3-2.5
								c0.1,0,0.2,0,0.3,0c0,0,0,0,0.1,0c1.8-2,4.9-2.2,7-0.5H15c1.2,1,1.9,2.5,1.8,4v0.5C20.3,9.7,20.3,14.8,16.8,14.8 M4.8,5.9
								c0,0-0.1,0-0.1,0C4.7,5.9,4.7,5.9,4.8,5.9 M3.9,6.2c0,0-0.1,0-0.1,0.1C3.8,6.3,3.8,6.3,3.9,6.2 M5.7,5.7
								C5.7,5.7,5.6,5.7,5.7,5.7C5.6,5.7,5.7,5.7,5.7,5.7 M20.6,6.8c-0.5-1.7-1.4-3.3-2.8-4.5l0,0l0-0.1c-2.4-2.1-5.7-2.8-8.7-1.9
								C6,1.3,3.7,3.7,2.8,6.8c0,0,0.1,0,0.2,0c0,0,0,0,0.1,0c-1.2,0.8-2.2,2-2.7,3.4c-0.9,2.7,0,5.6,2.2,7.4l0.7-0.7l-0.7,0.7l0,0
								c1.2,0.9,2.6,1.3,4,1.3h5.1l0,0h5.1c2.9,0,5.5-1.9,6.4-4.7C24.1,11.4,23.1,8.4,20.6,6.8"/>
						</g>
					</g>
                    </g>
                </g>
            </g>
        </g>
    </g>
</svg>
